X:910
T:the Register
A:Wyresdale, Lancashire
B:E and J Winder, 1835-41
L:1/8
M:6/8
O:England
Z:Richard Robinson 
%%TUNEURL: http://www.leeds.ac.uk/music/Info/RRTuneBk/gettune/000005ac.html
%%ID:000005ac
K:G
D | \
G2G GAB | c2c c2B | A2A ABc | d2d d2B | \
g2g gfe | d2d def | gec BcA | G2G  G2 ::
d | \
g2g gfe | d2d def | g2g gfe | d2d d2B | \
c2c edc | B2B dcB | ABc BcA | G2G  G2 ::
